remix/Device/hotspot-fill.svg

<svg viewBox="0 0 24 24" fill="currentColor" xmlns="http://www.w3.org/2000/svg"><path d="M11 2V11H18V21C18 21.5523 17.5523 22 17 22H5C4.44772 22 4 21.5523 4 21V3C4 2.44772 4.44772 2 5 2H11ZM13 7C14.1046 7 15 7.89543 15 9H13V7ZM13 4C15.7614 4 18 6.23858 18 9H16C16 7.34315 14.6569 6 13 6V4ZM13 1C17.4183 1 21 4.58172 21 9H19C19 5.68629 16.3137 3 13 3V1Z"/></svg>

<svg viewBox="0 0 24 24" xmlns="http://www.w3.org/2000/svg"><path fill="none" d="M0 0h24v24H0Z"/><path d="M11 2v9h7v10 0c0 .55-.45 1-1 1H5v0c-.56 0-1-.45-1-1V3v0c0-.56.44-1 1-1h6Zm2 5v0c1.1 0 2 .89 2 2h-2V7Zm0-3v0c2.76 0 5 2.23 5 5h-2v0c0-1.66-1.35-3-3-3V4Zm0-3v0c4.41 0 8 3.58 8 8h-2v0c0-3.32-2.69-6-6-6V1Z"/></svg>
